HTML/img/RGB Mazes/frgbmazeb.svg

<?xml version="1.0" encoding="UTF-8" standalone="no"?>
<!-- Created with Inkscape (http://www.inkscape.org/) -->

<svg
   xmlns:dc="http://purl.org/dc/elements/1.1/"
   xmlns:cc="http://creativecommons.org/ns#"
   xmlns:rdf="http://www.w3.org/1999/02/22-rdf-syntax-ns#"
   xmlns:svg="http://www.w3.org/2000/svg"
   xmlns="http://www.w3.org/2000/svg"
   xmlns:sodipodi="http://sodipodi.sourceforge.net/DTD/sodipodi-0.dtd"
   xmlns:inkscape="http://www.inkscape.org/namespaces/inkscape"
   width="76.276184mm"
   height="64.071426mm"
   viewBox="0 0 76.276184 64.071426"
   version="1.1"
   id="svg1044"
   inkscape:version="0.92.4 (5da689c313, 2019-01-14)"
   sodipodi:docname="frgbmazeb.svg">
  <defs
     id="defs1038" />
  <sodipodi:namedview
     id="base"
     pagecolor="#ffffff"
     bordercolor="#666666"
     borderopacity="1.0"
     inkscape:pageopacity="0.0"
     inkscape:pageshadow="2"
     inkscape:zoom="0.35"
     inkscape:cx="-211.36334"
     inkscape:cy="95.365568"
     inkscape:document-units="mm"
     inkscape:current-layer="g1159"
     showgrid="false"
     inkscape:snap-global="false"
     inkscape:window-width="1366"
     inkscape:window-height="705"
     inkscape:window-x="-8"
     inkscape:window-y="-8"
     inkscape:window-maximized="1" />
  <metadata
     id="metadata1041">
    <rdf:RDF>
      <cc:Work
         rdf:about="">
        <dc:format>image/svg+xml</dc:format>
        <dc:type
           rdf:resource="http://purl.org/dc/dcmitype/StillImage" />
        <dc:title></dc:title>
      </cc:Work>
    </rdf:RDF>
  </metadata>
  <g
     inkscape:label="Layer 1"
     inkscape:groupmode="layer"
     id="layer1"
     transform="translate(-32.86667,-109.99404)">
    <path
       style="fill:#ffffff;fill-opacity:1;stroke:#000000;stroke-width:2;stroke-miterlimit:4;stroke-dasharray:none;stroke-opacity:1"
       id="path1620"
       sodipodi:type="arc"
       sodipodi:cx="36.89048"
       sodipodi:cy="114.81547"
       sodipodi:rx="3.0238097"
       sodipodi:ry="3.0238097"
       sodipodi:start="0"
       sodipodi:end="6.2733417"
       sodipodi:open="true"
       d="m 39.91429,114.81547 a 3.0238097,3.0238097 0 0 1 -3.016369,3.0238 3.0238097,3.0238097 0 0 1 -3.031214,-3.00892 3.0238097,3.0238097 0 0 1 3.001449,-3.03861 3.0238097,3.0238097 0 0 1 3.045987,2.99396" />
    <g
       id="g1159"
       transform="matrix(0.86199341,0,0,0.86199341,-19.530683,64.953264)">
      <g
         id="g995"
         style="stroke-width:2;stroke-miterlimit:4;stroke-dasharray:none"
         transform="matrix(0.98847338,0,0,0.98847338,169.18855,-20.667373)">
        <rect
           ry="2.4979179e-06"
           y="74.75"
           x="-95.25"
           height="74.083336"
           width="74.083336"
           id="rect961"
           style="fill:#ffffff;fill-opacity:1;stroke:#000000;stroke-width:2;stroke-miterlimit:4;stroke-dasharray:none;stroke-opacity:1" />
        <path
           inkscape:connector-curvature="0"
           id="path963"
           d="m -84.666666,74.75 v 10.583334 h 10.583334 v 10.583333 h 10.583333 V 106.5 h 10.583333 v 10.58333 H -74.083332 V 106.5 H -84.666666 V 95.916667 h -10.583333"
           style="fill:none;stroke:#000000;stroke-width:2;stroke-linecap:butt;stroke-linejoin:miter;stroke-miterlimit:4;stroke-dasharray:none;stroke-opacity:1" />
        <path
           inkscape:connector-curvature="0"
           id="path969"
           d="M -63.499999,95.916667 V 85.333334 h 10.583333 v 10.583333 h 10.583333 V 85.333334 H -31.75 V 74.75"
           style="fill:none;stroke:#000000;stroke-width:2;stroke-linecap:butt;stroke-linejoin:miter;stroke-miterlimit:4;stroke-dasharray:none;stroke-opacity:1" />
        <path
           inkscape:connector-curvature="0"
           id="path971"
           d="M -42.333333,95.916667 H -31.75 v 21.166663 h -10.583333 v 10.58334 h 21.166667"
           style="fill:none;stroke:#000000;stroke-width:2;stroke-linecap:butt;stroke-linejoin:miter;stroke-miterlimit:4;stroke-dasharray:none;stroke-opacity:1" />
        <path
           inkscape:connector-curvature="0"
           id="path973"
           d="m -52.916666,117.08333 v 10.58334 h 10.583333"
           style="fill:none;stroke:#000000;stroke-width:2;stroke-linecap:butt;stroke-linejoin:miter;stroke-miterlimit:4;stroke-dasharray:none;stroke-opacity:1" />
        <path
           inkscape:connector-curvature="0"
           id="path975"
           d="M -42.333333,106.5 V 95.916667"
           style="fill:none;stroke:#000000;stroke-width:2;stroke-linecap:butt;stroke-linejoin:miter;stroke-miterlimit:4;stroke-dasharray:none;stroke-opacity:1" />
        <path
           inkscape:connector-curvature="0"
           id="path977"
           d="M -42.333333,148.83333 V 138.25 h -21.166666 v -21.16667"
           style="fill:none;stroke:#000000;stroke-width:2;stroke-linecap:butt;stroke-linejoin:miter;stroke-miterlimit:4;stroke-dasharray:none;stroke-opacity:1" />
        <path
           inkscape:connector-curvature="0"
           id="path979"
           d="M -31.75,138.25 H -42.333333"
           style="fill:none;stroke:#000000;stroke-width:2;stroke-linecap:butt;stroke-linejoin:miter;stroke-miterlimit:4;stroke-dasharray:none;stroke-opacity:1" />
        <path
           inkscape:connector-curvature="0"
           id="path981"
           d="M -63.499999,127.66667 H -74.083332 V 138.25 h -10.583334 v -10.58333 h -10.583333"
           style="fill:none;stroke:#000000;stroke-width:2;stroke-linecap:butt;stroke-linejoin:miter;stroke-miterlimit:4;stroke-dasharray:none;stroke-opacity:1" />
        <path
           inkscape:connector-curvature="0"
           id="path983"
           d="M -74.083332,117.08333 H -84.666666"
           style="fill:none;stroke:#000000;stroke-width:2;stroke-linecap:butt;stroke-linejoin:miter;stroke-miterlimit:4;stroke-dasharray:none;stroke-opacity:1" />
      </g>
    </g>
  </g>
</svg>

<svg xmlns="http://www.w3.org/2000/svg" width="288.288" height="242.16" viewBox="0 0 76.276 64.071"><path d="M7.048 4.821A3.024 3.024 0 014.03 7.845 3.024 3.024 0 011 4.836a3.024 3.024 0 013.001-3.038 3.024 3.024 0 013.046 2.994" fill="#fff" stroke="#000" stroke-width="2"/><g transform="matrix(.85206 0 0 .85206 93.442 -62.856)" stroke-width="2" stroke="#000"><rect ry="0" y="74.75" x="-95.25" height="74.083" width="74.083" fill="#fff"/><path d="M-84.667 74.75v10.583h10.584v10.584H-63.5V106.5h10.583v10.583h-21.166V106.5h-10.584V95.917H-95.25" fill="none"/><path d="M-63.5 95.917V85.333h10.583v10.584h10.584V85.333h10.583V74.75M-42.333 95.917h10.583v21.166h-10.583v10.584h21.166M-52.917 117.083v10.584h10.584M-42.333 106.5V95.917" fill="none"/><path d="M-42.333 148.833V138.25H-63.5v-21.167M-31.75 138.25h-10.583M-63.5 127.667h-10.583v10.583h-10.584v-10.583H-95.25M-74.083 117.083h-10.584" fill="none"/></g></svg>
